X:15
T:ddafad gornog, y
Z:crm
M:C
L:1/4
Q:1/2=170
K:Edor
EFGA|BFBd|c2(3BcB|AGFG|EFGA|BEBd|(3cdc(3BcB|AGFA|
EFGA|B2Bd|c2B2|AGFG|EFGA|BEBd|(3cdc(3BcB|A3||
B|B2(3GAB|A2(3F>GA|G2(3EFG|F3-F|BBGB|A2F>A|G>AF>G|E3B|
B2GB|A2FA|G2(3E>FG|F2DF|B2G>B|A2F>A|GAFG|E4||
